packages/foundations/assets/icons/functional/images/arrows/arrow_down_24.svg

<svg width="24" height="24" viewBox="0 0 24 24" fill="none" xmlns="http://www.w3.org/2000/svg">
<g clip-path="url(#clip0_183_3763)">
<path fill-rule="evenodd" clip-rule="evenodd" d="M12 3.99723C12.562 3.99723 13 4.43523 13 4.99723V16.5912L17.28 12.3102C17.3726 12.2121 17.4842 12.1338 17.6079 12.08C17.7317 12.0262 17.8651 11.998 18 11.9972C18.437 11.9972 19 12.3722 19 13.0292C19.0004 13.1567 18.9757 13.2829 18.9273 13.4008C18.879 13.5187 18.8078 13.6259 18.718 13.7162L12.718 19.7162C12.5536 19.8773 12.3375 19.9751 12.108 19.9922L12 19.9972C11.75 20.0292 11.485 19.9202 11.28 19.7172L5.28 13.7172C5.10401 13.5309 5.00413 13.2855 5 13.0292C5 12.4662 5.468 11.9972 6 11.9972C6.13476 11.9973 6.26806 12.0251 6.39159 12.079C6.51513 12.1328 6.62624 12.2115 6.718 12.3102L11 16.5912V4.99723C11 4.43523 11.437 3.99723 12 3.99723Z" fill="#1A1C1F"/>
</g>
<defs>
<clipPath id="clip0_183_3763">
<rect width="24" height="24" fill="white"/>
</clipPath>
</defs>
</svg>

<svg xmlns="http://www.w3.org/2000/svg" width="24" height="24" fill="none"><g clip-path="url(#a)"><path fill="#1A1C1F" fill-rule="evenodd" d="M12 3.997c.562 0 1 .438 1 1v11.594l4.28-4.28a1 1 0 0 1 .72-.314c.437 0 1 .375 1 1.032a.97.97 0 0 1-.282.687l-6 6a.98.98 0 0 1-.61.276l-.108.005c-.25.032-.515-.077-.72-.28l-6-6A1.03 1.03 0 0 1 5 13.03c0-.563.468-1.032 1-1.032a.98.98 0 0 1 .718.313L11 16.591V4.997c0-.562.437-1 1-1" clip-rule="evenodd"/></g><defs><clipPath id="a"><path fill="#fff" d="M0 0h24v24H0z"/></clipPath></defs></svg>
